src/assets/images/prototype/produits-utilises/10-liquide.svg

<svg width="300" height="679" viewBox="0 0 300 679" fill="none" xmlns="http://www.w3.org/2000/svg">
<path d="M118.841 60.7891C84.1687 80.2268 12.827 127.192 4.84181 159.554C-5.13972 200.005 37.9384 226.272 33.2104 291.94C28.4823 357.608 -5.13994 486.317 4.84181 561.967C14.8236 637.616 10.0952 650.75 21.6528 659.155C33.2104 667.561 137.754 675.966 150.887 675.966C164.021 675.966 262.785 672.289 269.615 659.155C276.444 646.022 296.407 595.589 293.255 561.967C290.103 528.345 257.532 312.429 269.615 261.996C281.698 211.563 306.389 194.752 293.255 159.554C282.748 131.395 219.532 81.9779 189.237 60.7891" stroke="#E0E0E0" stroke-width="5" stroke-dasharray="10 10"/>
<path d="M117.789 60.7878V31.8939L134.6 25.0644V3L171.374 3V25.0644L187.134 31.8939V60.7878" stroke="#E0E0E0" stroke-width="5" stroke-dasharray="10 10"/>
</svg>

<svg width="300" height="679" fill="none" xmlns="http://www.w3.org/2000/svg"><path d="M118.841 60.79c-34.672 19.437-106.014 66.402-114 98.764-9.98 40.451 33.097 66.718 28.37 132.386-4.729 65.668-38.35 194.377-28.37 270.027 9.983 75.649 5.254 88.783 16.812 97.188 11.557 8.406 116.101 16.811 129.234 16.811 13.134 0 111.898-3.677 118.728-16.811 6.829-13.133 26.792-63.566 23.64-97.188-3.152-33.622-35.723-249.538-23.64-299.971 12.083-50.433 36.774-67.244 23.64-102.442-10.507-28.159-73.723-77.576-104.018-98.765m-71.448-.001V31.894l16.811-6.83V3h36.774v22.064l15.76 6.83v28.894" stroke="#E0E0E0" stroke-width="5" stroke-dasharray="10 10"/></svg>
